lib/flags/jo-jordan.svg

<svg xmlns="http://www.w3.org/2000/svg" fill="none" aria-hidden="true" viewBox="0 0 42 30"><g id="Country=JO - Jordan, Size=sm (36x24)" filter="url(#filter0_dd_91_27303)"><g clip-path="url(#clip0_91_27303)"><g id="flag"><mask id="mask0_91_27303" width="36" height="24" x="3" y="2" maskUnits="userSpaceOnUse" style="mask-type:alpha"><rect id="mask" width="36" height="24" x="3" y="2" fill="white"/></mask><g mask="url(#mask0_91_27303)"><g id="contents"><path id="background" fill="#F7FCFF" fill-rule="evenodd" d="M3 2V26H39V2H3Z" clip-rule="evenodd"/><g id="Object"><mask id="mask1_91_27303" width="36" height="24" x="3" y="2" maskUnits="userSpaceOnUse" style="mask-type:alpha"><path id="background_2" fill="white" fill-rule="evenodd" d="M3 2V26H39V2H3Z" clip-rule="evenodd"/></mask><g mask="url(#mask1_91_27303)"><path id="top" fill="#272727" fill-rule="evenodd" d="M3 2V10H39V2H3Z" clip-rule="evenodd"/><path id="bottom" fill="#009933" fill-rule="evenodd" d="M3 18V26H39V18H3Z" clip-rule="evenodd"/></g></g><path id="triangle" fill="#E31D1C" fill-rule="evenodd" d="M3 2V26L25.5 14L3 2Z" clip-rule="evenodd"/><mask id="mask2_91_27303" width="23" height="24" x="3" y="2" maskUnits="userSpaceOnUse" style="mask-type:alpha"><path id="triangle_2" fill="white" fill-rule="evenodd" d="M3 2V26L25.5 14L3 2Z" clip-rule="evenodd"/></mask><g mask="url(#mask2_91_27303)"><path id="Star 5" fill="#F7FCFF" fill-rule="evenodd" d="M13.127 15.8707L11.0225 17L11.5025 14.7962L9.75 13.1469L12.123 13.0578L13.127 11L14.131 13.0578H16.5L14.7515 14.7962L15.2779 17L13.127 15.8707Z" clip-rule="evenodd"/></g></g></g></g></g></g><defs><filter id="filter0_dd_91_27303" width="42" height="30" x="0" y="0" color-interpolation-filters="sRGB" filterUnits="userSpaceOnUse"><feFlood flood-opacity="0" result="BackgroundImageFix"/><feColorMatrix in="SourceAlpha" result="hardAlpha" values="0 0 0 0 0 0 0 0 0 0 0 0 0 0 0 0 0 0 127 0"/><feOffset dy="1"/><feGaussianBlur stdDeviation="1"/><feColorMatrix values="0 0 0 0 0.0627451 0 0 0 0 0.0941176 0 0 0 0 0.156863 0 0 0 0.06 0"/><feBlend in2="BackgroundImageFix" result="effect1_dropShadow_91_27303"/><feColorMatrix in="SourceAlpha" result="hardAlpha" values="0 0 0 0 0 0 0 0 0 0 0 0 0 0 0 0 0 0 127 0"/><feOffset dy="1"/><feGaussianBlur stdDeviation="1.5"/><feColorMatrix values="0 0 0 0 0.0627451 0 0 0 0 0.0941176 0 0 0 0 0.156863 0 0 0 0.1 0"/><feBlend in2="effect1_dropShadow_91_27303" result="effect2_dropShadow_91_27303"/><feBlend in="SourceGraphic" in2="effect2_dropShadow_91_27303" result="shape"/></filter><clipPath id="clip0_91_27303"><rect width="36" height="24" x="3" y="2" fill="white" rx="2"/></clipPath></defs></svg>

<svg xmlns="http://www.w3.org/2000/svg" fill="none" aria-hidden="true" viewBox="0 0 42 30"><g filter="url(#a)"><g clip-path="url(#b)"><mask id="c" width="36" height="24" x="3" y="2" maskUnits="userSpaceOnUse" style="mask-type:alpha"><path fill="#fff" d="M3 2h36v24H3z"/></mask><g mask="url(#c)"><path fill="#F7FCFF" fill-rule="evenodd" d="M3 2v24h36V2H3Z" clip-rule="evenodd"/><mask id="d" width="36" height="24" x="3" y="2" maskUnits="userSpaceOnUse" style="mask-type:alpha"><path fill="#fff" fill-rule="evenodd" d="M3 2v24h36V2H3Z" clip-rule="evenodd"/></mask><g fill-rule="evenodd" clip-rule="evenodd" mask="url(#d)"><path fill="#272727" d="M3 2v8h36V2H3Z"/><path fill="#093" d="M3 18v8h36v-8H3Z"/></g><path fill="#E31D1C" fill-rule="evenodd" d="M3 2v24l22.5-12L3 2Z" clip-rule="evenodd"/><mask id="e" width="23" height="24" x="3" y="2" maskUnits="userSpaceOnUse" style="mask-type:alpha"><path fill="#fff" fill-rule="evenodd" d="M3 2v24l22.5-12L3 2Z" clip-rule="evenodd"/></mask><g mask="url(#e)"><path fill="#F7FCFF" fill-rule="evenodd" d="M13.127 15.87 11.023 17l.48-2.204-1.753-1.65 2.373-.088L13.127 11l1.004 2.058H16.5l-1.748 1.738.526 2.204-2.151-1.13Z" clip-rule="evenodd"/></g></g></g></g><defs><clipPath id="b"><rect width="36" height="24" x="3" y="2" fill="#fff" rx="2"/></clipPath><filter id="a" width="42" height="30" x="0" y="0" color-interpolation-filters="sRGB" filterUnits="userSpaceOnUse"><feFlood flood-opacity="0" result="BackgroundImageFix"/><feColorMatrix in="SourceAlpha" result="hardAlpha" values="0 0 0 0 0 0 0 0 0 0 0 0 0 0 0 0 0 0 127 0"/><feOffset dy="1"/><feGaussianBlur stdDeviation="1"/><feColorMatrix values="0 0 0 0 0.0627451 0 0 0 0 0.0941176 0 0 0 0 0.156863 0 0 0 0.06 0"/><feBlend in2="BackgroundImageFix" result="effect1_dropShadow_91_27303"/><feColorMatrix in="SourceAlpha" result="hardAlpha" values="0 0 0 0 0 0 0 0 0 0 0 0 0 0 0 0 0 0 127 0"/><feOffset dy="1"/><feGaussianBlur stdDeviation="1.5"/><feColorMatrix values="0 0 0 0 0.0627451 0 0 0 0 0.0941176 0 0 0 0 0.156863 0 0 0 0.1 0"/><feBlend in2="effect1_dropShadow_91_27303" result="effect2_dropShadow_91_27303"/><feBlend in="SourceGraphic" in2="effect2_dropShadow_91_27303" result="shape"/></filter></defs></svg>
